christians-website/frontend/static/images/socialmedia/gmailIcon.svg

<svg height="143" viewBox="0 0 152 143" width="152" xmlns="http://www.w3.org/2000/svg"><g fill="none" fill-rule="evenodd"><rect height="129" rx="23" stroke="#ff7000" stroke-width="14" width="138" x="7" y="7"/><path d="m26.2843494 44.0344226-1.2843494-.9482698v-5.3107401c0-2.6364773 2.1117188-4.7754127 4.7146484-4.7754127h2.7294922l42.5558594 31.4171472 42.555859-31.4171472h2.726954c2.605468 0 4.717187 2.1387376 4.717187 4.7754127v5.3107401l-.536547.3961469 1.536547.1139055v62.6049288c0 2.649426-2.17283 4.798866-4.853698 4.798866h-7.146302v-58.7507674l.651385-1.5224182-1.313885.9700767-38.3375 28.3031089-38.3375-28.3031089-.1752788-.129413.5127788 1.0337371v58.3987848h-7.1489148c-2.6782556 0-4.8510852-2.136372-4.8510852-4.770131v-62.229869z" fill="#ff7000" fill-rule="nonzero"/></g></svg>

<?xml version="1.0" encoding="UTF-8"?>
<svg width="152px" height="143px" viewBox="0 0 152 143" version="1.1" xmlns="http://www.w3.org/2000/svg" xmlns:xlink="http://www.w3.org/1999/xlink">
    <!-- Generator: Sketch 53.2 (72643) - https://sketchapp.com -->
    <title>gmailIcon</title>
    <desc>Created with Sketch.</desc>
    <g id="Page-1" stroke="none" stroke-width="1" fill="none" fill-rule="evenodd">
        <g id="Group-18" transform="translate(-230.000000, -1331.000000)">
            <g id="gmailIcon" transform="translate(230.000000, 1331.000000)">
                <rect id="Rectangle" stroke="#ff7000" stroke-width="14" x="7" y="7" width="138" height="129" rx="23"></rect>
                <path d="M26.2843494,44.0344226 L25,43.0861528 L25,37.7754127 C25,35.1389354 27.1117188,33 29.7146484,33 L32.4441406,33 L75,64.4171472 L117.555859,33 L120.282813,33 C122.888281,33 125,35.1387376 125,37.7754127 L125,43.0861528 L124.463453,43.4822997 L126,43.5962052 L126,106.201134 C126,108.85056 123.82717,111 121.146302,111 L114,111 L114,52.2492326 L114.651385,50.7268144 L113.3375,51.6968911 L75,80 L36.6625,51.6968911 L36.4872212,51.5674781 L37,52.6012152 L37,111 L29.8510852,111 C27.1728296,111 25,108.863628 25,106.229869 L25,44 L26.2843494,44.0344226 Z" id="Combined-Shape" fill="#ff7000" fill-rule="nonzero"></path>
            </g>
        </g>
    </g>
</svg>
